logos/coda.svg

<?xml version="1.0" encoding="UTF-8"?>
<svg width="512px" height="177px" viewBox="0 0 512 177" version="1.1" xmlns="http://www.w3.org/2000/svg" preserveAspectRatio="xMidYMid">
    <title>coda</title>
    <g>
        <path d="M0,107.937217 C0,150.398626 29.3915031,176.790996 66.5807519,176.790996 C79.6506577,176.790996 92.7205634,173.634014 102.254649,166.499234 L102.254649,133.319353 C93.6151095,141.033014 82.4245394,145.273059 70.8426777,145.221175 C51.5219474,145.221175 36.1158749,131.393594 36.1158749,108.031926 C36.1158749,85.0352852 50.983087,71.521845 69.9370616,71.1051644 L70.8426777,71.0952363 C82.4846322,70.8724951 93.7739148,75.0946868 102.412498,82.9023492 L102.412498,49.659328 C92.9415522,42.3666994 79.8085068,39.5885552 66.738601,39.5885552 C29.3915031,39.5885552 0,65.9809253 0,107.937217 Z M178.022219,39.5885552 C140.138434,39.5885552 113.682924,67.7488353 113.682924,107.937217 C113.682924,148.125599 140.075295,176.790996 178.022219,176.790996 C215.969144,176.790996 242.582502,148.378157 242.582502,107.937217 C242.582502,67.4962767 216.221702,39.5885552 178.022219,39.5885552 Z M178.022219,145.884142 C159.932712,145.884142 149.861939,130.099231 149.861939,108.000357 C149.861939,85.9014822 159.932712,70.3059907 178.022219,70.3059907 C196.111726,70.3059907 206.150929,86.0909011 206.150929,108.000357 C206.150929,129.909812 196.364285,145.884142 178.022219,145.884142 Z M346.226224,53.4161367 C337.516405,44.4725681 325.52977,39.4771863 313.046342,39.5885552 C274.846859,39.5885552 253.253102,70.4954097 253.253102,107.937217 C253.253102,145.821002 274.846859,176.790996 313.046342,176.790996 C325.507021,176.78735 337.450743,171.809852 346.226224,162.963415 L346.226224,173.791863 L382.657797,173.791863 L382.657797,0 L346.226224,0 L346.226224,53.4161367 Z M346.226224,129.815103 C341.410855,139.099754 331.808222,144.912516 321.349205,144.874288 C301.491788,144.874288 289.779384,129.088997 289.779384,107.937217 C289.779384,86.7854372 301.586497,71.2530854 321.349205,71.2530854 C331.868715,71.2762995 341.483543,77.206257 346.226224,86.5960182 L346.226224,129.815103 Z M455.552513,39.5885552 C437.968123,39.5885552 421.141408,44.3871679 411.575753,50.4170037 L411.575753,81.9868244 C422.242313,74.9581087 434.728133,71.194808 447.502209,71.1583759 C466.096833,71.1583759 476.925282,79.2086802 476.925282,92.0260274 L476.925282,99.318656 C471.621552,95.5302775 458.804204,91.5209103 447.502209,91.5209103 C418.615823,91.5209103 396.769507,108.600183 396.769507,133.729761 C396.769507,160.879806 418.615823,176.191169 445.260751,176.191169 C459.56188,176.191169 472.631786,171.171568 476.830572,166.909642 L476.830572,173.949712 L512,173.949712 L512,89.8477098 C512.094062,57.930621 491.478969,39.5885552 455.552513,39.5885552 Z M476.925282,138.086396 C473.7683,145.126466 464.107934,149.419961 453.784603,149.419961 C442.230049,149.419961 430.422936,144.621349 430.422936,133.319353 C430.422936,122.017357 442.230049,117.250314 453.784603,117.250314 C464.107934,117.250314 473.64202,121.51224 476.925282,128.55231 L476.925282,138.086396 Z" fill="#101010"></path>
    </g>
</svg>

<svg preserveAspectRatio="xMidYMid" viewBox="0 0 512 177" xmlns="http://www.w3.org/2000/svg">
  <path fill="#101010" d="M0 107.937c0 42.462 29.392 68.854 66.58 68.854 13.07 0 26.14-3.157 35.675-10.292v-33.18a46.85 46.85 0 0 1-31.412 11.902c-19.321 0-34.727-13.827-34.727-37.19 0-22.996 14.867-36.51 33.821-36.926l.906-.01a45.776 45.776 0 0 1 31.57 11.807V49.66c-9.471-7.292-22.604-10.07-35.674-10.07C29.392 39.589 0 65.98 0 107.937ZM178.022 39.59c-37.884 0-64.34 28.16-64.34 68.348 0 40.189 26.393 68.854 64.34 68.854s64.56-28.413 64.56-68.854c0-40.44-26.36-68.348-64.56-68.348Zm0 106.295c-18.09 0-28.16-15.785-28.16-37.884s10.07-37.694 28.16-37.694S206.151 86.091 206.151 108c0 21.91-9.787 37.884-28.129 37.884Zm168.204-92.468a45.745 45.745 0 0 0-33.18-13.827c-38.2 0-59.793 30.906-59.793 68.348 0 37.884 21.594 68.854 59.793 68.854a46.755 46.755 0 0 0 33.18-13.828v10.829h36.432V0h-36.432v53.416Zm0 76.4a27.909 27.909 0 0 1-24.877 15.058c-19.857 0-31.57-15.785-31.57-36.937 0-21.152 11.807-36.684 31.57-36.684a27.94 27.94 0 0 1 24.877 15.343v43.22ZM455.553 39.59c-17.585 0-34.412 4.798-43.977 10.828v31.57a65.634 65.634 0 0 1 35.926-10.829c18.595 0 29.423 8.05 29.423 20.868v7.293c-5.303-3.789-18.12-7.798-29.423-7.798-28.886 0-50.732 17.08-50.732 42.209 0 27.15 21.846 42.461 48.49 42.461 14.302 0 27.372-5.02 31.57-9.281v7.04H512V89.848c.094-31.917-20.521-50.26-56.447-50.26Zm21.372 98.497c-3.157 7.04-12.817 11.334-23.14 11.334-11.555 0-23.362-4.799-23.362-16.1 0-11.303 11.807-16.07 23.362-16.07 10.323 0 19.857 4.262 23.14 11.302v9.534Z"/>
</svg>
